flaticon/transport/truck-6.svg

<svg xmlns="http://www.w3.org/2000/svg" width="32" height="32" viewBox="0 0 24 24">
    <path d="M4.203125 15.78125C3.742188 15.78125 3.363281 16.160156 3.363281 16.625 3.363281 17.085938 3.742188 17.464844 4.203125 17.464844 4.664062 17.464844 5.042969 17.085938 5.042969 16.625 5.042969 16.160156 4.664062 15.78125 4.203125 15.78125zM18.914062 15.78125C18.453125 15.78125 18.074219 16.160156 18.074219 16.625 18.074219 17.085938 18.453125 17.464844 18.914062 17.464844 19.375 17.464844 19.753906 17.085938 19.753906 16.625 19.753906 16.160156 19.375 15.78125 18.914062 15.78125zM18.914062 15.78125"/>
    <path d="M 23.621094 8.933594 L 19.964844 4.898438 C 19.671875 4.601562 19.292969 4.433594 18.914062 4.433594 L 15.046875 4.433594 C 14.375 4.433594 13.871094 4.9375 13.871094 5.570312 L 13.871094 8.21875 L 1.007812 8.21875 C 0.460938 8.21875 0 8.679688 0 9.226562 L 0 16.035156 C 0 16.582031 0.460938 17.042969 1.007812 17.042969 L 1.289062 17.042969 C 1.492188 18.480469 2.707031 19.566406 4.203125 19.566406 C 5.699219 19.566406 6.914062 18.480469 7.117188 17.042969 L 16 17.042969 C 16.203125 18.480469 17.417969 19.566406 18.914062 19.566406 C 20.410156 19.566406 21.625 18.480469 21.828125 17.042969 L 22.949219 17.042969 C 23.496094 17.042969 23.957031 16.582031 24 16.078125 L 24 9.898438 C 24 9.519531 23.875 9.183594 23.621094 8.933594 Z M 18.914062 5.273438 C 19.039062 5.273438 19.207031 5.359375 19.335938 5.441406 L 22.949219 9.476562 L 16.8125 9.476562 L 16.8125 5.273438 Z M 0.839844 9.226562 C 0.839844 9.140625 0.925781 9.058594 1.007812 9.058594 L 13.871094 9.058594 L 13.871094 12 L 0.839844 12 Z M 4.203125 18.726562 C 3.027344 18.726562 2.101562 17.800781 2.101562 16.625 C 2.101562 15.445312 3.027344 14.523438 4.203125 14.523438 C 5.378906 14.523438 6.304688 15.445312 6.304688 16.625 C 6.304688 17.800781 5.378906 18.726562 4.203125 18.726562 Z M 18.914062 18.726562 C 17.738281 18.726562 16.8125 17.800781 16.8125 16.625 C 16.8125 15.445312 17.738281 14.523438 18.914062 14.523438 C 20.089844 14.523438 21.015625 15.445312 21.015625 16.625 C 21.015625 17.800781 20.089844 18.726562 18.914062 18.726562 Z M 22.949219 16.203125 L 21.828125 16.203125 C 21.625 14.765625 20.410156 13.679688 18.914062 13.679688 C 18.90625 13.679688 18.902344 13.683594 18.894531 13.683594 C 18.886719 13.683594 18.878906 13.679688 18.871094 13.679688 C 17.402344 13.679688 16.183594 14.773438 15.972656 16.203125 L 7.117188 16.203125 C 6.925781 14.855469 5.847656 13.820312 4.480469 13.695312 C 4.46875 13.691406 4.460938 13.691406 4.449219 13.691406 C 4.414062 13.6875 4.378906 13.6875 4.34375 13.683594 C 4.296875 13.683594 4.25 13.679688 4.203125 13.679688 C 4.15625 13.679688 4.109375 13.683594 4.0625 13.683594 C 4.027344 13.6875 3.992188 13.6875 3.957031 13.691406 C 3.945312 13.691406 3.9375 13.691406 3.925781 13.695312 C 2.558594 13.820312 1.480469 14.855469 1.289062 16.203125 L 1.007812 16.203125 C 0.925781 16.203125 0.839844 16.117188 0.839844 16.035156 L 0.839844 12.839844 L 14.710938 12.839844 L 14.710938 5.570312 C 14.710938 5.402344 14.835938 5.273438 15.046875 5.273438 L 15.972656 5.273438 L 15.972656 9.605469 C 15.972656 9.984375 16.308594 10.320312 16.6875 10.320312 L 23.117188 10.320312 L 23.117188 11.578125 L 21.015625 11.578125 C 20.761719 11.578125 20.59375 11.746094 20.59375 12 C 20.59375 12.253906 20.761719 12.421875 21.015625 12.421875 L 23.117188 12.421875 L 23.117188 16.035156 C 23.117188 16.117188 23.035156 16.203125 22.949219 16.203125 Z M 22.949219 16.203125"/>
</svg>

<svg xmlns="http://www.w3.org/2000/svg" width="32" height="32" viewBox="0 0 24 24">
    <path d="M4.203 15.781c-.46 0-.84.38-.84.844 0 .46.38.84.84.84.461 0 .84-.38.84-.84a.844.844 0 0 0-.84-.844zm0 0M18.914 15.781c-.46 0-.84.38-.84.844 0 .46.38.84.84.84.461 0 .84-.38.84-.84a.844.844 0 0 0-.84-.844zm0 0"/>
    <path d="M23.621 8.934l-3.656-4.036a1.493 1.493 0 0 0-1.05-.464h-3.868c-.672 0-1.176.503-1.176 1.136V8.22H1.008A1.02 1.02 0 0 0 0 9.227v6.808c0 .547.46 1.008 1.008 1.008h.281a2.925 2.925 0 0 0 2.914 2.523 2.925 2.925 0 0 0 2.914-2.523H16a2.925 2.925 0 0 0 2.914 2.523 2.925 2.925 0 0 0 2.914-2.523h1.121c.547 0 1.008-.461 1.051-.965v-6.18c0-.378-.125-.714-.379-.964zm-4.707-3.66c.125 0 .293.085.422.167l3.613 4.036h-6.137V5.273zM.84 9.226c0-.086.086-.168.168-.168H13.87V12H.84zm3.363 9.5a2.083 2.083 0 0 1-2.101-2.102 2.08 2.08 0 0 1 2.101-2.102 2.08 2.08 0 0 1 2.102 2.102 2.083 2.083 0 0 1-2.102 2.102zm14.711 0a2.083 2.083 0 0 1-2.102-2.102 2.08 2.08 0 0 1 2.102-2.102 2.08 2.08 0 0 1 2.102 2.102 2.083 2.083 0 0 1-2.102 2.102zm4.035-2.524h-1.12a2.925 2.925 0 0 0-2.915-2.523c-.008 0-.012.004-.02.004-.007 0-.015-.004-.023-.004-1.469 0-2.687 1.093-2.898 2.523H7.117a2.92 2.92 0 0 0-2.637-2.508c-.011-.004-.02-.004-.03-.004-.036-.004-.071-.004-.106-.007-.047 0-.094-.004-.14-.004-.048 0-.095.004-.141.004-.036.004-.07.004-.106.007-.012 0-.02 0-.031.004a2.92 2.92 0 0 0-2.637 2.508h-.281c-.082 0-.168-.086-.168-.168V12.84h13.87V5.57c0-.168.126-.297.337-.297h.926v4.332c0 .38.336.715.714.715h6.43v1.258h-2.101c-.254 0-.422.168-.422.422s.168.422.422.422h2.101v3.613c0 .082-.082.168-.168.168zm0 0"/>
</svg>
